X: 1
T: Ha'd The Lass Till I Run At Her
M: 4/4
L: 1/8
Q: 160
S: J.Lishman()MS, c1825, Lakes, Browne Coll.
R: Reel
O: England
A: Lakes
Z: vmp.Chris Partington
F: http://www.village-music-project.org.uk/abc/browne13.ABC 2007-05-17 02:38:04 UT
K:D
Ae-eg fdec|Ae-eg gGdB|Aeeg fdef|g-g a/g/f/e/ dGdB:|
|:Ag f/g/a fdec|Ag f/g/a GB/c/ dB|Ag f/g/a fdef|gg a/g/f/e/ dBdB:|
